X: 1419
T: An tSeanbhean Bhocht
R: hornpipe
M: 4/4
K: Gmajor
dc|Bd gf ge dc|B2 GF GB dB|ce ag af dB|c2 AG A2 dc|
(3.B.c.d gf g2 BA|GD BD GB dB|ce af ge dc|B2 GF G2:|
dc|(3.B.c.d gd (3.B.c.d gd|(3.B.c.d cA GB dB|ce ae ce ae|cA BG A2 dc|
(3Bcd gd (3Bcd gd|(3Bcd cA GB dB|ce af ge dc|B2 GF G2:|
ga|bg (3agf ge dc|B2 GF G2 ab|c'a bg (3agf dB|c2 AG A2 ga|
(3bag af g2 BA|GD BD GB dB|ce af (3gfe dc|B2 GF G2:|

